X: 11023
M: 3/4
L: 1/8
K: F
"^8va.  -  -  -  -"\
.f2 |\
.e2z2.d2 | .c2z2.=B2 | "_>".d2z2.c2 | "_>".A.A.A.A.A.A |\
.B2z2.c2 | .G.G.G.G.G.G | .A2z2.c2 | .f2z2.f2 !mf!|\
.e2z2.d2 | .c2z2=B2 | "_>".d2z2.c2 | "_>".A.A.A.A.A.A |\
|: e2 |\
f2z2g2 | a2z2f2 | e2z2f2 | gggggg |\
d2z2e2 | ffffff | c2z2d2 | eeeeee |\
f2z2g2 | {B}=b3agf | e2z2f2 | {A}a3gfe |\
d2z2e2 | {G}g3fed | c2cccc | c2"^D.C."z2 |]


